telma/img/buttons/base-plane/RemoveNode.svg

<?xml version="1.0" encoding="UTF-8" standalone="no"?>
<!-- Created with Inkscape (http://www.inkscape.org/) -->
<svg
   xmlns:dc="http://purl.org/dc/elements/1.1/"
   xmlns:cc="http://creativecommons.org/ns#"
   xmlns:rdf="http://www.w3.org/1999/02/22-rdf-syntax-ns#"
   xmlns:svg="http://www.w3.org/2000/svg"
   xmlns="http://www.w3.org/2000/svg"
   xmlns:xlink="http://www.w3.org/1999/xlink"
   xmlns:sodipodi="http://sodipodi.sourceforge.net/DTD/sodipodi-0.dtd"
   xmlns:inkscape="http://www.inkscape.org/namespaces/inkscape"
   width="600"
   height="600"
   id="svg2"
   sodipodi:version="0.32"
   inkscape:version="0.46"
   version="1.0"
   sodipodi:docname="RemoveNode.svg"
   inkscape:output_extension="org.inkscape.output.svg.inkscape"
   inkscape:export-filename="D:\Documents and Settings\Маша\Рабочий стол\TELMA.V20\Projects\Interfaces\Telbase\TelBasePanel\images\RemoveNode.png"
   inkscape:export-xdpi="4.7978296"
   inkscape:export-ydpi="4.7978296">
  <defs
     id="defs4">
    <linearGradient
       inkscape:collect="always"
       id="linearGradient3267">
      <stop
         style="stop-color:#ff0000;stop-opacity:1;"
         offset="0"
         id="stop3269" />
      <stop
         style="stop-color:#ff0000;stop-opacity:0;"
         offset="1"
         id="stop3271" />
    </linearGradient>
    <linearGradient
       inkscape:collect="always"
       xlink:href="#linearGradient3267"
       id="linearGradient3273"
       x1="123.15675"
       y1="130.17917"
       x2="131.75237"
       y2="121.43824"
       gradientUnits="userSpaceOnUse"
       gradientTransform="matrix(0.4886094,-3.0688775,0.4738435,3.1645097,142.81868,283.077)" />
    <linearGradient
       id="linearGradient3253">
      <stop
         style="stop-color:#ff0000;stop-opacity:1;"
         offset="0"
         id="stop3255" />
      <stop
         style="stop-color:#ff0000;stop-opacity:0;"
         offset="1"
         id="stop3257" />
    </linearGradient>
    <linearGradient
       inkscape:collect="always"
       xlink:href="#linearGradient3253"
       id="linearGradient3261"
       x1="-74.741104"
       y1="-86.035858"
       x2="60.712032"
       y2="-149.45459"
       gradientUnits="userSpaceOnUse" />
    <linearGradient
       id="linearGradient4618">
      <stop
         style="stop-color:#e3d85d;stop-opacity:0.77865613;"
         offset="0"
         id="stop4620" />
      <stop
         style="stop-color:#ffffff;stop-opacity:0;"
         offset="1"
         id="stop4622" />
    </linearGradient>
    <linearGradient
       id="linearGradient3176">
      <stop
         id="stop3178"
         offset="0"
         style="stop-color:#ff0000;stop-opacity:1;" />
      <stop
         id="stop3180"
         offset="1"
         style="stop-color:#00d63b;stop-opacity:0;" />
    </linearGradient>
    <linearGradient
       id="linearGradient3170">
      <stop
         style="stop-color:#ff0000;stop-opacity:1;"
         offset="0"
         id="stop3172" />
      <stop
         style="stop-color:#00d63b;stop-opacity:0;"
         offset="1"
         id="stop3174" />
    </linearGradient>
    <linearGradient
       id="linearGradient3164">
      <stop
         id="stop3166"
         offset="0"
         style="stop-color:#ff0000;stop-opacity:1;" />
      <stop
         id="stop3168"
         offset="1"
         style="stop-color:#00d63b;stop-opacity:0;" />
    </linearGradient>
    <linearGradient
       id="linearGradient5422">
      <stop
         style="stop-color:#ff0000;stop-opacity:1;"
         offset="0"
         id="stop5424" />
      <stop
         style="stop-color:#00d63b;stop-opacity:0;"
         offset="1"
         id="stop5426" />
    </linearGradient>
    <inkscape:perspective
       sodipodi:type="inkscape:persp3d"
       inkscape:vp_x="0 : 526.18109 : 1"
       inkscape:vp_y="6.1230318e-14 : 1000 : 0"
       inkscape:vp_z="744.09448 : 526.18109 : 1"
       inkscape:persp3d-origin="372.04724 : 350.78739 : 1"
       id="perspective10" />
  </defs>
  <sodipodi:namedview
     id="base"
     pagecolor="#ffffff"
     bordercolor="#666666"
     borderopacity="1.0"
     gridtolerance="10000"
     guidetolerance="10"
     objecttolerance="10"
     inkscape:pageopacity="0.0"
     inkscape:pageshadow="2"
     inkscape:zoom="0.70000001"
     inkscape:cx="-311.42855"
     inkscape:cy="413.26324"
     inkscape:document-units="px"
     inkscape:current-layer="layer1"
     showgrid="false"
     showguides="true"
     inkscape:showpageshadow="false"
     inkscape:window-width="1212"
     inkscape:window-height="956"
     inkscape:window-x="54"
     inkscape:window-y="28"
     showborder="true">
    <inkscape:grid
       type="xygrid"
       visible="true"
       enabled="true"
       id="grid2393" />
  </sodipodi:namedview>
  <metadata
     id="metadata7">
    <rdf:RDF>
      <cc:Work
         rdf:about="">
        <dc:format>image/svg+xml</dc:format>
        <dc:type
           rdf:resource="http://purl.org/dc/dcmitype/StillImage" />
      </cc:Work>
    </rdf:RDF>
  </metadata>
  <g
     inkscape:label="Layer 1"
     inkscape:groupmode="layer"
     id="layer1">
    <rect
       ry="90"
       rx="90"
       y="10.602222"
       x="11.58176"
       height="576.74463"
       width="577.10175"
       id="rect2390"
       style="opacity:1;fill:none;fill-opacity:1;stroke:none;stroke-width:1;stroke-linecap:round;stroke-linejoin:miter;stroke-miterlimit:4;stroke-dasharray:none;stroke-dashoffset:0;stroke-opacity:1"
       inkscape:export-filename="P:\TELMA.V20\telma.v20_10_11\Projects\Interfaces\BaseInterface\Telbase\TelBasePanel\images\RemoveNode.png"
       inkscape:export-xdpi="4.9904542"
       inkscape:export-ydpi="4.9904542" />
    <rect
       style="opacity:1;fill:none;fill-opacity:0;stroke:none;stroke-width:23.16965866000000000;stroke-linecap:round;stroke-linejoin:miter;stroke-miterlimit:4;stroke-dasharray:none;stroke-dashoffset:0;stroke-opacity:1"
       id="rect5264"
       width="577.10175"
       height="576.74463"
       x="11.581718"
       y="11.612374"
       rx="90"
       ry="90"
       inkscape:export-filename="D:\Documents and Settings\Маша\Рабочий стол\TELMA.V20\Projects\Interfaces\Telbase\TelBasePanel\images\RemoveNode.png"
       inkscape:export-xdpi="4.8006859"
       inkscape:export-ydpi="4.8006859" />
  </g>
  <g
     inkscape:groupmode="layer"
     id="layer2"
     inkscape:label="Линия">
    <path
       style="fill:none;fill-rule:evenodd;stroke:#000000;stroke-width:30;stroke-linecap:round;stroke-linejoin:miter;stroke-miterlimit:4;stroke-dasharray:none;stroke-opacity:1"
       d="M 485.71429,80.796231 L 485.71429,503.48948"
       id="path2422" />
    <path
       style="fill:none;fill-rule:evenodd;stroke:#7653ec;stroke-width:30;stroke-linecap:round;stroke-linejoin:round;stroke-miterlimit:4;stroke-dasharray:none;stroke-opacity:1"
       d="M 212.13203,91.893274 L 86.873118,302.005 L 210.11173,502.0152"
       id="path3199"
       sodipodi:nodetypes="ccc" />
  </g>
  <g
     inkscape:groupmode="layer"
     id="layer4"
     inkscape:label="Strelki">
    <path
       sodipodi:type="star"
       style="opacity:1;fill:url(#linearGradient3261);fill-opacity:1;stroke:#000000;stroke-width:1;stroke-linecap:round;stroke-miterlimit:4;stroke-dasharray:none;stroke-opacity:1"
       id="path3487"
       sodipodi:sides="3"
       sodipodi:cx="-20"
       sodipodi:cy="-132.85715"
       sodipodi:r1="76.903938"
       sodipodi:r2="35.012089"
       sodipodi:arg1="-0.96046964"
       sodipodi:arg2="0.28773554"
       inkscape:flatsided="false"
       inkscape:rounded="0"
       inkscape:randomized="0"
       d="M 24.076354,-195.87691 L 13.572705,-122.92136 L 12.53854,-63.176023 L -45.390996,-108.75023 L -96.614894,-139.51851 L -28.181709,-166.89986 L 24.076354,-195.87691 z"
       transform="matrix(0.4307059,-0.9482698,0.9199248,0.3973815,502.76652,329.38977)" />
    <path
       style="fill:#ff0000;fill-opacity:1;fill-rule:evenodd;stroke:url(#linearGradient3273);stroke-width:34.64300156;stroke-linecap:square;stroke-linejoin:miter;stroke-miterlimit:4;stroke-dasharray:none;stroke-opacity:1"
       d="M 318.13321,296.04352 L 221.86679,295.38505"
       id="path3489"
       sodipodi:nodetypes="cc" />
  </g>
  <g
     inkscape:groupmode="layer"
     id="layer3"
     inkscape:label="Узел">
    <path
       sodipodi:type="arc"
       style="opacity:1;fill:#ffffff;fill-opacity:1;stroke:#ff0000;stroke-width:117.96363831;stroke-linecap:round;stroke-linejoin:miter;stroke-miterlimit:4;stroke-dasharray:none;stroke-dashoffset:0;stroke-opacity:1"
       id="path3195"
       sodipodi:cx="741.42859"
       sodipodi:cy="400"
       sodipodi:rx="304.28571"
       sodipodi:ry="282.85715"
       d="M 1045.7143,400 A 304.28571,282.85715 0 1 1 437.14288,400 A 304.28571,282.85715 0 1 1 1045.7143,400 z"
       transform="matrix(0.1225987,0,0,0.1318865,394.8161,455.81684)" />
    <path
       transform="matrix(0.1225987,0,0,0.1318865,394.98942,38.8473)"
       d="M 1045.7143,400 A 304.28571,282.85715 0 1 1 437.14288,400 A 304.28571,282.85715 0 1 1 1045.7143,400 z"
       sodipodi:ry="282.85715"
       sodipodi:rx="304.28571"
       sodipodi:cy="400"
       sodipodi:cx="741.42859"
       id="path3197"
       style="opacity:1;fill:#ffffff;fill-opacity:1;stroke:#ff0000;stroke-width:117.96363831;stroke-linecap:round;stroke-linejoin:miter;stroke-miterlimit:4;stroke-dasharray:none;stroke-dashoffset:0;stroke-opacity:1"
       sodipodi:type="arc" />
    <path
       sodipodi:type="arc"
       style="opacity:1;fill:#ffffff;fill-opacity:1;stroke:#ff0000;stroke-width:117.96363831;stroke-linecap:round;stroke-linejoin:miter;stroke-miterlimit:4;stroke-dasharray:none;stroke-dashoffset:0;stroke-opacity:1"
       id="path3201"
       sodipodi:cx="741.42859"
       sodipodi:cy="400"
       sodipodi:rx="304.28571"
       sodipodi:ry="282.85715"
       d="M 1045.7143,400 A 304.28571,282.85715 0 1 1 437.14288,400 A 304.28571,282.85715 0 1 1 1045.7143,400 z"
       transform="matrix(0.1225987,0,0,0.1318865,123.25839,38.8473)" />
    <path
       sodipodi:type="arc"
       style="opacity:1;fill:#ffffff;fill-opacity:1;stroke:#ff0000;stroke-width:117.96363831;stroke-linecap:round;stroke-linejoin:miter;stroke-miterlimit:4;stroke-dasharray:none;stroke-dashoffset:0;stroke-opacity:1"
       id="path3203"
       sodipodi:cx="741.42859"
       sodipodi:cy="400"
       sodipodi:rx="304.28571"
       sodipodi:ry="282.85715"
       d="M 1045.7143,400 A 304.28571,282.85715 0 1 1 437.14288,400 A 304.28571,282.85715 0 1 1 1045.7143,400 z"
       transform="matrix(0.1225987,0,0,0.1318865,125.2787,458.0606)" />
    <path
       transform="matrix(0.1225987,0,0,0.1318865,3.0502431,249.96918)"
       d="M 1045.7143,400 A 304.28571,282.85715 0 1 1 437.14288,400 A 304.28571,282.85715 0 1 1 1045.7143,400 z"
       sodipodi:ry="282.85715"
       sodipodi:rx="304.28571"
       sodipodi:cy="400"
       sodipodi:cx="741.42859"
       id="path3205"
       style="opacity:1;fill:#ffffff;fill-opacity:1;stroke:#ff8900;stroke-width:117.96363831000000744;stroke-linecap:round;stroke-linejoin:miter;stroke-miterlimit:4;stroke-dasharray:none;stroke-dashoffset:0;stroke-opacity:1"
       sodipodi:type="arc" />
  </g>
</svg>

<svg xmlns="http://www.w3.org/2000/svg" xmlns:xlink="http://www.w3.org/1999/xlink" width="600" height="600"><defs><linearGradient id="A" x1="123.157" y1="130.179" x2="131.752" y2="121.438" gradientTransform="matrix(0.4886094,-3.0688775,0.4738435,3.1645097,142.81868,283.077)" gradientUnits="userSpaceOnUse"><stop offset="0" stop-color="red"/><stop offset="1" stop-color="red" stop-opacity="0"/></linearGradient><linearGradient id="B" x1="-74.741" y1="-86.036" x2="60.712" y2="-149.455" gradientUnits="userSpaceOnUse"><stop offset="0" stop-color="red"/><stop offset="1" stop-color="red" stop-opacity="0"/></linearGradient><path id="C" d="M523.019 508.571c0 20.603-16.702 37.305-37.305 37.305s-37.305-16.702-37.305-37.305 16.702-37.305 37.305-37.305 37.305 16.702 37.305 37.305z"/></defs><g fill="none" stroke-width="30" stroke-linecap="round"><path d="M485.714 80.796v422.693" stroke="#000"/><path d="M212.132 91.893L86.873 302.005l123.239 200.01" stroke="#7653ec" stroke-linejoin="round"/></g><path d="M24.076-195.877l-10.504 72.956-1.034 59.745-57.93-45.574-51.224-30.768 68.433-27.381 52.258-28.977z" transform="matrix(.430706 -.94827 .919925 .397382 502.76652 329.38977)" fill="url(#B)" stroke="#000"/><path d="M318.133 296.044l-96.266-.658" fill="red" fill-rule="evenodd" stroke="url(#A)" stroke-width="34.643" stroke-linecap="square"/><g fill="#fff"><g stroke="red" stroke-width="15.02"><use xlink:href="#C"/><use xlink:href="#C" x="0.174" y="-416.969"/><use xlink:href="#C" x="-271.557" y="-416.969"/><use xlink:href="#C" x="-269.537" y="2.244"/></g><use xlink:href="#C" x="-391.766" y="-205.847" stroke="#ff8900" stroke-width="15.02"/></g></svg>
